X:2333
T:Y cuccu - Arrane y cooag 
C:Mrs A Teare, Ballaugh 
C:Traditional
O:Isle of Man
B:Kiaull Vannin 333 
M:4/4 
L:1/8 
Q:100 
K:G 
D|DG GA Bc dd|c B AA B3 D|DG GA Bc dd|cB A2 G3 d| 
dd B c/ d2 g> f|ed cB A2 DD|G2 GA Bc !fermata!d> g|d3 g d3 c|BA GG G3|| 

